Sweet-Rainbow/icons/magpi.svg

<?xml version="1.0" encoding="UTF-8" standalone="no"?>
<!-- Generator: Gravit.io -->

<svg
   xmlns:dc="http://purl.org/dc/elements/1.1/"
   xmlns:cc="http://creativecommons.org/ns#"
   xmlns:rdf="http://www.w3.org/1999/02/22-rdf-syntax-ns#"
   xmlns:svg="http://www.w3.org/2000/svg"
   xmlns="http://www.w3.org/2000/svg"
   xmlns:sodipodi="http://sodipodi.sourceforge.net/DTD/sodipodi-0.dtd"
   xmlns:inkscape="http://www.inkscape.org/namespaces/inkscape"
   style="isolation:isolate"
   viewBox="0 0 36 36"
   width="48"
   height="48"
   version="1.1"
   id="svg11"
   sodipodi:docname="magpi.svg"
   inkscape:version="0.92.4 (5da689c313, 2019-01-14)">
  <metadata
     id="metadata17">
    <rdf:RDF>
      <cc:Work
         rdf:about="">
        <dc:format>image/svg+xml</dc:format>
        <dc:type
           rdf:resource="http://purl.org/dc/dcmitype/StillImage" />
        <dc:title></dc:title>
      </cc:Work>
    </rdf:RDF>
  </metadata>
  <defs
     id="defs15" />
  <sodipodi:namedview
     pagecolor="#ffffff"
     bordercolor="#666666"
     borderopacity="1"
     objecttolerance="10"
     gridtolerance="10"
     guidetolerance="10"
     inkscape:pageopacity="0"
     inkscape:pageshadow="2"
     inkscape:window-width="640"
     inkscape:window-height="480"
     id="namedview13"
     showgrid="false"
     inkscape:zoom="29.365243"
     inkscape:cx="25.325443"
     inkscape:cy="32"
     inkscape:current-layer="svg11"
     units="px" />
  <linearGradient
     id="_lgradient_46"
     x1="-0.014458464"
     y1="0.009839246"
     x2="1.0164566"
     y2="1.072293"
     gradientTransform="matrix(46,0,0,46,1,1)"
     gradientUnits="userSpaceOnUse">
    <stop
       offset="0%"
       stop-opacity="1"
       style="stop-color:rgb(249,212,35)"
       id="stop2" />
    <stop
       offset="51.56237565086822%"
       stop-opacity="1"
       style="stop-color:rgb(255,78,80)"
       id="stop4" />
    <stop
       offset="99.1304347826087%"
       stop-opacity="1"
       style="stop-color:rgb(138,35,135)"
       id="stop6" />
  </linearGradient>
  <g
     id="g825"
     transform="matrix(0.7826087,0,0,0.7826087,-0.7826088,-0.7826088)">
    <path
       id="path9"
       d="m 13.97,7.87 v 0 C 13.032,8.45 11.795,8.16 11.21,7.225 v 0 C 10.625,6.29 10.912,5.055 11.85,4.47 v 0 C 15.5,2.2 19.71,1 24,1 c 3.89,0 7.72,0.99 11.13,2.87 v 0 c 0.966,0.535 1.315,1.754 0.78,2.72 v 0 c -0.535,0.966 -1.754,1.315 -2.72,0.78 v 0 C 30.38,5.81 27.22,5 24,5 20.45,5 16.98,5.99 13.97,7.87 Z M 7.29,33.05 v 0 c 0.53,0.971 0.171,2.188 -0.8,2.715 v 0 C 5.519,36.292 4.304,35.931 3.78,34.96 v 0 C 1.95,31.6 1,27.83 1,24 1,21.08 1.55,18.19 2.63,15.49 v 0 c 0.408,-1.027 1.573,-1.528 2.6,-1.12 v 0 c 1.027,0.408 1.528,1.573 1.12,2.6 v 0 C 5.45,19.2 5,21.59 5,24 c 0,3.16 0.79,6.27 2.29,9.05 z m 25.52,7.78 v 0 c 0.977,-0.508 2.187,-0.127 2.7,0.85 v 0 c 0.513,0.977 0.137,2.187 -0.84,2.7 v 0 C 31.38,46.1 27.72,47 24,47 20.42,47 16.88,46.17 13.68,44.56 v 0 c -0.988,-0.497 -1.387,-1.702 -0.89,-2.69 v 0 c 0.497,-0.988 1.702,-1.387 2.69,-0.89 v 0 C 18.12,42.31 21.04,43 24,43 c 3.07,0 6.09,-0.74 8.81,-2.17 z m 9,-23.47 v 0 c -0.386,-1.032 0.14,-2.184 1.175,-2.57 v 0 c 1.035,-0.386 2.189,0.142 2.575,1.18 v 0 C 46.51,18.54 47,21.26 47,24 c 0,3.62 -0.85,7.2 -2.5,10.43 v 0 c -0.497,0.982 -1.7,1.372 -2.685,0.87 v 0 C 40.83,34.798 40.438,33.592 40.94,32.61 v 0 C 42.3,29.94 43,26.99 43,24 43,21.73 42.6,19.49 41.81,17.36 Z M 7.29,39.11 c 0,-1.104 0.896,-2 2,-2 1.104,0 2,0.896 2,2 0,1.104 -0.896,2 -2,2 -1.104,0 -2,-0.896 -2,-2 z M 37.57,10.34 c 0,-1.104 0.896,-2 2,-2 1.104,0 2,0.896 2,2 0,1.104 -0.896,2 -2,2 -1.104,0 -2,-0.896 -2,-2 z m -32.035,0 c 0,1.104 0.896,2 2,2 1.104,0 2,-0.896 2,-2 0,-1.104 -0.896,-2 -2,-2 -1.104,0 -2,0.896 -2,2 z M 37.11,39.11 c 0,1.104 0.896,2 2,2 1.104,0 2,-0.896 2,-2 0,-1.104 -0.896,-2 -2,-2 -1.104,0 -2,0.896 -2,2 z M 13.845,15.17 v 17.66 h 5.298 V 23.117 L 24,27.532 28.857,23.117 v 9.713 h 5.298 V 15.17 H 28.857 L 24,19.585 19.143,15.17 Z"
       inkscape:connector-curvature="0"
       style="fill:url(#_lgradient_46);fill-rule:evenodd" />
  </g>
</svg>

<?xml version="1.0" encoding="UTF-8" standalone="no"?><!-- Generator: Gravit.io --><svg xmlns="http://www.w3.org/2000/svg" xmlns:xlink="http://www.w3.org/1999/xlink" style="isolation:isolate" viewBox="0 0 48 48" width="48pt" height="48pt"><linearGradient id="_lgradient_46" x1="-0.014458464773922156" y1="0.009839246119734024" x2="1.0164565923220248" y2="1.0722930524759795" gradientTransform="matrix(46,0,0,46,1,1)" gradientUnits="userSpaceOnUse"><stop offset="0%" stop-opacity="1" style="stop-color:rgb(249,212,35)"/><stop offset="51.56237565086822%" stop-opacity="1" style="stop-color:rgb(255,78,80)"/><stop offset="99.1304347826087%" stop-opacity="1" style="stop-color:rgb(138,35,135)"/></linearGradient><path d=" M 13.97 7.87 L 13.97 7.87 C 13.032 8.45 11.795 8.16 11.21 7.225 L 11.21 7.225 C 10.625 6.29 10.912 5.055 11.85 4.47 L 11.85 4.47 C 15.5 2.2 19.71 1 24 1 C 27.89 1 31.72 1.99 35.13 3.87 L 35.13 3.87 C 36.096 4.405 36.445 5.624 35.91 6.59 L 35.91 6.59 C 35.375 7.556 34.156 7.905 33.19 7.37 L 33.19 7.37 C 30.38 5.81 27.22 5 24 5 C 20.45 5 16.98 5.99 13.97 7.87 L 13.97 7.87 L 13.97 7.87 L 13.97 7.87 L 13.97 7.87 L 13.97 7.87 L 13.97 7.87 L 13.97 7.87 Z  M 7.29 33.05 L 7.29 33.05 C 7.82 34.021 7.461 35.238 6.49 35.765 L 6.49 35.765 C 5.519 36.292 4.304 35.931 3.78 34.96 L 3.78 34.96 C 1.95 31.6 1 27.83 1 24 C 1 21.08 1.55 18.19 2.63 15.49 L 2.63 15.49 C 3.038 14.463 4.203 13.962 5.23 14.37 L 5.23 14.37 C 6.257 14.778 6.758 15.943 6.35 16.97 L 6.35 16.97 C 5.45 19.2 5 21.59 5 24 C 5 27.16 5.79 30.27 7.29 33.05 L 7.29 33.05 L 7.29 33.05 L 7.29 33.05 L 7.29 33.05 L 7.29 33.05 L 7.29 33.05 L 7.29 33.05 Z  M 32.81 40.83 L 32.81 40.83 C 33.787 40.322 34.997 40.703 35.51 41.68 L 35.51 41.68 C 36.023 42.657 35.647 43.867 34.67 44.38 L 34.67 44.38 C 31.38 46.1 27.72 47 24 47 C 20.42 47 16.88 46.17 13.68 44.56 L 13.68 44.56 C 12.692 44.063 12.293 42.858 12.79 41.87 L 12.79 41.87 C 13.287 40.882 14.492 40.483 15.48 40.98 L 15.48 40.98 C 18.12 42.31 21.04 43 24 43 C 27.07 43 30.09 42.26 32.81 40.83 L 32.81 40.83 L 32.81 40.83 L 32.81 40.83 L 32.81 40.83 L 32.81 40.83 L 32.81 40.83 Z  M 41.81 17.36 L 41.81 17.36 C 41.424 16.328 41.95 15.176 42.985 14.79 L 42.985 14.79 C 44.02 14.404 45.174 14.932 45.56 15.97 L 45.56 15.97 C 46.51 18.54 47 21.26 47 24 C 47 27.62 46.15 31.2 44.5 34.43 L 44.5 34.43 C 44.003 35.412 42.8 35.802 41.815 35.3 L 41.815 35.3 C 40.83 34.798 40.438 33.592 40.94 32.61 L 40.94 32.61 C 42.3 29.94 43 26.99 43 24 C 43 21.73 42.6 19.49 41.81 17.36 L 41.81 17.36 L 41.81 17.36 L 41.81 17.36 L 41.81 17.36 L 41.81 17.36 Z  M 7.29 39.11 C 7.29 38.006 8.186 37.11 9.29 37.11 C 10.394 37.11 11.29 38.006 11.29 39.11 C 11.29 40.214 10.394 41.11 9.29 41.11 C 8.186 41.11 7.29 40.214 7.29 39.11 L 7.29 39.11 L 7.29 39.11 L 7.29 39.11 L 7.29 39.11 Z  M 37.57 10.34 C 37.57 9.236 38.466 8.34 39.57 8.34 C 40.674 8.34 41.57 9.236 41.57 10.34 C 41.57 11.444 40.674 12.34 39.57 12.34 C 38.466 12.34 37.57 11.444 37.57 10.34 L 37.57 10.34 L 37.57 10.34 L 37.57 10.34 Z  M 5.535 10.34 C 5.535 11.444 6.431 12.34 7.535 12.34 C 8.639 12.34 9.535 11.444 9.535 10.34 C 9.535 9.236 8.639 8.34 7.535 8.34 C 6.431 8.34 5.535 9.236 5.535 10.34 L 5.535 10.34 L 5.535 10.34 Z  M 37.11 39.11 C 37.11 40.214 38.006 41.11 39.11 41.11 C 40.214 41.11 41.11 40.214 41.11 39.11 C 41.11 38.006 40.214 37.11 39.11 37.11 C 38.006 37.11 37.11 38.006 37.11 39.11 L 37.11 39.11 Z  M 13.845 15.17 L 13.845 32.83 L 19.143 32.83 L 19.143 23.117 L 24 27.532 L 28.857 23.117 L 28.857 32.83 L 34.155 32.83 L 34.155 15.17 L 28.857 15.17 L 24 19.585 L 19.143 15.17 L 13.845 15.17 Z " fill-rule="evenodd" fill="url(#_lgradient_46)"/></svg>
